svgs/duotone/square-y.svg

<svg xmlns="http://www.w3.org/2000/svg" viewBox="0 0 448 512"><!-- Font Awesome Pro 6.0.0-alpha2 by @fontawesome - https://fontawesome.com License - https://fontawesome.com/license (Commercial License) --><defs><style>.fa-secondary{opacity:.4}</style></defs><path d="M384 32H64C28.654 32 0 60.654 0 96V416C0 451.346 28.654 480 64 480H384C419.348 480 448 451.346 448 416V96C448 60.654 419.348 32 384 32ZM346.219 167.625L248 282.209V360C248 373.25 237.25 384 224 384S200 373.25 200 360V282.209L101.781 167.625C93.156 157.562 94.312 142.406 104.375 133.781C114.453 125.156 129.594 126.344 138.219 136.375L224 236.453L309.781 136.375C318.422 126.328 333.547 125.109 343.625 133.781C353.688 142.406 354.844 157.562 346.219 167.625Z" class="fa-secondary"/><path d="M309.781 136.375L224 236.453L138.219 136.375C129.594 126.344 114.453 125.156 104.375 133.781C94.313 142.406 93.156 157.562 101.781 167.625L200 282.209V360C200 373.25 210.75 384 224 384S248 373.25 248 360V282.209L346.219 167.625C354.844 157.563 353.688 142.406 343.625 133.781C333.547 125.109 318.422 126.328 309.781 136.375Z" class="fa-primary"/></svg>

<svg xmlns="http://www.w3.org/2000/svg" viewBox="0 0 448 512"><!--! Font Awesome Pro 6.3.0 by @fontawesome - https://fontawesome.com License - https://fontawesome.com/license (Commercial License) Copyright 2023 Fonticons, Inc. --><defs><style>.fa-secondary{opacity:.4}</style></defs><path class="fa-primary" d="M309.8 136.4L224 236.5L138.2 136.4C129.6 126.3 114.5 125.2 104.4 133.8C94.31 142.4 93.16 157.6 101.8 167.6L200 282.2V360C200 373.3 210.8 384 224 384s24-10.75 24-24V282.2l98.22-114.6c8.625-10.06 7.469-25.22-2.594-33.84C333.5 125.1 318.4 126.3 309.8 136.4z"/><path class="fa-secondary" d="M384 32H64C28.65 32 0 60.65 0 96v320c0 35.35 28.65 64 64 64h320c35.35 0 64-28.65 64-64V96C448 60.65 419.3 32 384 32zM346.2 167.6L248 282.2V360c0 13.25-10.75 24-24 24s-24-10.75-24-24V282.2L101.8 167.6C93.16 157.6 94.31 142.4 104.4 133.8c10.08-8.625 25.22-7.438 33.84 2.594L224 236.5l85.78-100.1c8.641-10.05 23.77-11.27 33.84-2.594C353.7 142.4 354.8 157.6 346.2 167.6z"/></svg>
